X: 1
T: Banks of Newfoundland
T: Woods of Old Limerick, the
M: 6/8
L: 1/8
S: Jack Coen
R: jig
Z: Lesl
S: Brendan Taaffe <laughingrock:HOTMAIL.COM> irtrad-l 2001-11-20
N: Chords by John Chambers
K: G
GA \
| "G"B2A BGD |     GBd    ~g3  |    ded "Em"BGA | "Am"BAG "D7"AGA \
| "G"B2A BGD |     GBd     g2g |    ded "Em"BGA | "D7"BGF  "G"Gy :|
AB \
| "G"d2g gfg | "Am"e2a "D7"aga | "G"bge     dBG | "Em"BAG "D7"ABc \
| "G"d2g gfg | "Am"e2a "D7"aga | "G"bge     dBA | "D7"BGF  "G"Gy |]
AB \
| "G"d2g gfg | "Am"e2a "D7"aga |    bge     dBG | "Em"BAG "D7"ABc \
| "G"B2A BGD |     GBd     g2g |    ded "Em"BGA | "D7"BGF  "G"Gy |]
